X:462
T:Broken Rifle
C:John Kirkpatrick
M:4/4
L:1/8
Q:1/4=170
K:G
G2 (3GGG G3 D|GABc dBGB|A2 (3AAA ADAB|cdcB A2 AD |
G2 BD GBDG | cEGc Gcec | dGBd gDGB | cdcB ADEF |
G2 (3GGG G3 D|GABc dBGB|A2 (3AAA ADAB|cdcB A2 AD |
G2 BD GBDG | cEGc Gcec  | dGBd gedc | BGAF G2 E2 ||
A2 (3AAA AE^CE|AB^cd ecAc|d3 d dAFA|d^cde f2 d2|
e3 e e2 f2|g4 GBdg|f2 ed eaed|c2 B2 A2 B2|c2 (3ccc cGEG|
cded c2 (3AB^c|d2 (3ddd dAFA|defe d2 (3B^cd|e3 e e2 f2|
g4 g2 fe|d2 ga b3 b|bagf e2||
